; generated by PrusaSlicer 2.5.2+linux-x64-GTK3 on 2023-04-20 at 21:21:56 UTC


;
;

;
;
; 

; external perimeters extrusion width = 0.45mm
; perimeters extrusion width = 0.45mm
; infill extrusion width = 0.45mm
; solid infill extrusion width = 0.45mm
; top infill extrusion width = 0.40mm
; first layer extrusion width = 0.42mm

M73 P0 R7
M201 X2500 Y2500 Z400 E5000 ; sets maximum accelerations, mm/sec^2
M203 X180 Y180 Z12 E80 ; sets maximum feedrates, mm / sec
M204 P1250 R1250 T2500 ; sets acceleration (P, T) and retract acceleration (R), mm/sec^2
M205 X8.00 Y8.00 Z2.00 E10.00 ; sets the jerk limits, mm/sec
M205 S0 T0 ; sets the minimum extruding and travel feed rate, mm/sec
M107
;TYPE:Custom
M862.3 P "MINI" ; printer model check
G90 ; use absolute coordinates
M83 ; extruder relative mode
M104 S170 ; set extruder temp for bed leveling
M140 S60 ; set bed temp
M109 R170 ; wait for bed leveling temp
M190 S60 ; wait for bed temp
M204 T1250 ; set travel acceleration
G28 ; home all without mesh bed level
G29 ; mesh bed leveling 
M204 T2500 ; restore travel acceleration
M104 S215 ; set extruder temp
G92 E0
G1 Y-2 X179 F2400
G1 Z3 F720
M109 S215 ; wait for extruder temp

; intro line
M73 P1 R7
G1 X170 F1000
G1 Z0.2 F720
G1 X110 E8 F900
G1 X40 E10 F700
G92 E0

M221 S95 ; set flow
G21 ; set units to millimeters
G90 ; use absolute coordinates
M83 ; use relative distances for extrusion
M900 K0.2 ; Filament gcode LA 1.5
; ; Filament gcode LA 1.0
M107
;LAYER_CHANGE
;Z:0.2
;HEIGHT:0.2
;BEFORE_LAYER_CHANGE
G92 E0.0
;0.2


M73 P2 R6
G1 E-3.2 F4200
M73 P3 R6
G1 Z.2 F720
;AFTER_LAYER_CHANGE
;0.2
G1 Z.4
G1 X79.956 Y73.817 F9000
G1 Z.2 F720
G1 E3.2 F2400
M204 P800
;TYPE:Skirt/Brim
;WIDTH:0.42
G1 F1200
G1 X80.545 Y73.301 E.02456
G1 X81.252 Y72.946 E.0248
G1 X82.041 Y72.773 E.02532
G1 X97.74 Y72.761 E.49224
G1 X98.366 Y72.836 E.01977
M73 P4 R6
G1 X98.887 Y72.999 E.01711
G1 X99.783 Y73.556 E.03309
G1 X100.184 Y73.986 E.01843
G1 X100.497 Y74.484 E.01844
G1 X100.716 Y75.043 E.01881
G1 X100.827 Y75.641 E.01908
G1 X100.84 Y104.055 E.89091
G1 X100.759 Y104.79 E.02318
G1 X100.497 Y105.516 E.0242
G1 X100.044 Y106.183 E.02527
G1 X99.455 Y106.699 E.02456
G1 X98.748 Y107.054 E.0248
G1 X97.959 Y107.227 E.02532
G1 X82.26 Y107.239 E.49224
G1 X81.61 Y107.159 E.02053
G1 X80.884 Y106.897 E.0242
G1 X80.234 Y106.459 E.02456
G1 X79.701 Y105.855 E.02527
G1 X79.291 Y104.981 E.03026
G1 X79.162 Y104.186 E.02524
G1 X79.16 Y75.945 E.8855
G1 X79.241 Y75.21 E.02318
M73 P5 R6
G1 X79.503 Y74.484 E.0242
G1 X79.922 Y73.867 E.02339
M204 P1000
G1 X80.232 Y74.077 F9000
M204 P800
G1 F1200
G1 X80.757 Y73.613 E.02198
G1 X81.38 Y73.3 E.02185
G1 X82.076 Y73.149 E.02235
G1 X97.728 Y73.138 E.49076
G1 X98.743 Y73.347 E.03248
G1 X99.534 Y73.839 E.0292
G1 X100.161 Y74.655 E.03227
G1 X100.353 Y75.148 E.01659
G1 X100.451 Y75.676 E.01686
G1 X100.463 Y104.055 E.8898
G1 X100.391 Y104.708 E.02058
G1 X100.161 Y105.345 E.02124
G1 X99.761 Y105.934 E.02231
G1 X99.243 Y106.387 E.02159
G1 X98.62 Y106.7 E.02185
G1 X97.924 Y106.851 E.02235
G1 X82.272 Y106.862 E.49076
G1 X81.692 Y106.791 E.0183
G1 X81.055 Y106.561 E.02124
G1 X80.484 Y106.176 E.0216
G1 X80.013 Y105.643 E.02231
G1 X79.653 Y104.876 E.02656
G1 X79.539 Y104.175 E.02228
G1 X79.537 Y75.945 E.88513
G1 X79.609 Y75.292 E.02058
M73 P6 R6
G1 X79.839 Y74.655 E.02124
G1 X80.198 Y74.127 E.02003
M204 P1000
; printing object sensor_frame.stl id:0 copy 0
G1 E-2.24 F4200
;WIPE_START
G1 F7200
G1 X80.757 Y73.613 E-.42075
G1 X81.38 Y73.3 E-.38615
G1 X81.565 Y73.26 E-.1051
;WIPE_END
G1 E-.048 F4200
G1 Z.4 F720
G1 X83.405 Y76.809 F9000
G1 Z.2 F720
G1 E3.2 F2400
M204 P800
;TYPE:Perimeter
;WIDTH:0.412947
G1 F1200
G1 X83.348 Y76.831 E.00186
;WIDTH:0.457281
G1 X83.27 Y76.861 E.00289
;WIDTH:0.501461
G1 X83.204 Y76.965 E.00471
;WIDTH:0.545641
G1 X83.138 Y77.07 E.00516
;WIDTH:0.589821
G1 X83.072 Y77.174 E.00561
;WIDTH:0.634
G1 X83.006 Y77.278 E.00607
G1 X82.984 Y77.085 E.00955
;WIDTH:0.589821
G1 X82.962 Y76.892 E.00884
;WIDTH:0.545641
G1 X82.94 Y76.699 E.00813
;WIDTH:0.501461
G1 X82.918 Y76.506 E.00741
;WIDTH:0.457281
G1 X83.134 Y76.496 E.00746
;WIDTH:0.412947
G1 X83.35 Y76.487 E.00666
;WIDTH:0.414819
G1 X83.416 Y76.506 E.00211
;WIDTH:0.461026
G1 X83.481 Y76.524 E.00237
;WIDTH:0.507233
G1 X83.547 Y76.543 E.00264
;WIDTH:0.55344
G1 X83.613 Y76.562 E.0029
;WIDTH:0.599647
G1 X83.678 Y76.581 E.00316
;WIDTH:0.645854
G1 X83.744 Y76.6 E.00342
G1 X83.679 Y76.625 E.0035
;WIDTH:0.596623
G1 X83.628 Y76.66 E.00283
;WIDTH:0.551021
G1 X83.578 Y76.695 E.0026
;WIDTH:0.505419
G1 X83.527 Y76.731 E.00237
;WIDTH:0.459817
G1 X83.477 Y76.766 E.00213
;WIDTH:0.414215
G1 X83.457 Y76.78 E.00076
M204 P1000
G1 E-2.24 F4200
;WIPE_START
G1 F7200
G1 X83.348 Y76.831 E-.06641
G1 X83.27 Y76.861 E-.04642
G1 X83.204 Y76.965 E-.06841
G1 X83.138 Y77.07 E-.06841
G1 X83.072 Y77.174 E-.06841
G1 X83.006 Y77.278 E-.06841
G1 X82.984 Y77.085 E-.10772
G1 X82.962 Y76.892 E-.10772
G1 X82.94 Y76.699 E-.10772
G1 X82.918 Y76.506 E-.10772
G1 X83.089 Y76.498 E-.09466
;WIPE_END
G1 E-.048 F4200
G1 Z.4 F720
G1 X96.321 Y76.6 F9000
G1 Z.2 F720
G1 E3.2 F2400
M204 P800
;WIDTH:0.64582
G1 F1200
G1 X96.514 Y76.577 E.00973
;WIDTH:0.599542
G1 X96.707 Y76.554 E.00898
;WIDTH:0.553263
G1 X96.9 Y76.531 E.00824
;WIDTH:0.506984
G1 X97.092 Y76.507 E.00749
;WIDTH:0.460705
G1 X97.092 Y76.716 E.00726
;WIDTH:0.506852
G1 X97.069 Y76.857 E.00549
;WIDTH:0.552998
G1 X97.046 Y76.997 E.00604
;WIDTH:0.599144
G1 X97.023 Y77.138 E.00659
;WIDTH:0.64529
G1 X97 Y77.279 E.00713
G1 X96.934 Y77.175 E.00615
;WIDTH:0.599144
G1 X96.868 Y77.071 E.00568
;WIDTH:0.552998
G1 X96.802 Y76.968 E.00521
;WIDTH:0.506852
G1 X96.736 Y76.864 E.00474
;WIDTH:0.506984
G1 X96.632 Y76.798 E.00474
;WIDTH:0.553263
G1 X96.529 Y76.732 E.00521
;WIDTH:0.599542
G1 X96.425 Y76.666 E.00568
;WIDTH:0.64582
G1 X96.372 Y76.632 E.00315
M204 P1000
G1 E-2.24 F4200
;WIPE_START
G1 F7200
G1 X96.514 Y76.577 E-.08454
G1 X96.707 Y76.554 E-.10757
G1 X96.9 Y76.531 E-.10757
G1 X97.092 Y76.507 E-.10757
G1 X97.092 Y76.716 E-.11581
G1 X97.069 Y76.857 E-.07892
G1 X97.046 Y76.997 E-.07892
G1 X97.023 Y77.138 E-.07892
G1 X97 Y77.279 E-.07892
G1 X96.934 Y77.175 E-.06808
G1 X96.929 Y77.167 E-.00518
;WIPE_END
G1 E-.048 F4200
G1 Z.4 F720
G1 X96.989 Y102.839 F9000
G1 Z.2 F720
G1 E3.2 F2400
M204 P800
;WIDTH:0.644186
G1 F1200
G1 X97.012 Y102.951 E.00572
;WIDTH:0.597416
G1 X97.036 Y103.063 E.00527
;WIDTH:0.550646
G1 X97.059 Y103.175 E.00483
;WIDTH:0.503876
G1 X97.082 Y103.287 E.00438
;WIDTH:0.457106
G1 X97.082 Y103.494 E.00713
G1 X96.871 Y103.503 E.00726
;WIDTH:0.414082
G1 X96.661 Y103.511 E.00651
;WIDTH:0.416678
G1 X96.595 Y103.493 E.00212
;WIDTH:0.462297
G1 X96.53 Y103.474 E.00238
;WIDTH:0.507916
G1 X96.464 Y103.455 E.00263
;WIDTH:0.553536
G1 X96.399 Y103.437 E.00289
;WIDTH:0.599155
G1 X96.333 Y103.418 E.00315
;WIDTH:0.644774
G1 X96.268 Y103.399 E.00341
G1 X96.321 Y103.379 E.00288
;WIDTH:0.604317
G1 X96.374 Y103.343 E.00297
;WIDTH:0.557666
G1 X96.426 Y103.306 E.00273
;WIDTH:0.511014
G1 X96.478 Y103.269 E.00248
;WIDTH:0.464362
G1 X96.53 Y103.233 E.00223
;WIDTH:0.41771
G1 X96.582 Y103.196 E.00199
;WIDTH:0.414082
G1 X96.656 Y103.167 E.00245
;WIDTH:0.457106
G1 X96.73 Y103.139 E.00274
;WIDTH:0.503876
G1 X96.795 Y103.064 E.0038
;WIDTH:0.550646
G1 X96.86 Y102.989 E.00418
;WIDTH:0.597416
G1 X96.924 Y102.914 E.00457
;WIDTH:0.644186
G1 X96.95 Y102.884 E.00195
M204 P1000
G1 E-2.24 F4200
;WIPE_START
G1 F7200
G1 X97.012 Y102.951 E-.0506
G1 X97.036 Y103.063 E-.06339
G1 X97.059 Y103.175 E-.06339
G1 X97.082 Y103.287 E-.06339
G1 X97.082 Y103.494 E-.11481
G1 X96.871 Y103.503 E-.11688
G1 X96.661 Y103.511 E-.11688
G1 X96.595 Y103.493 E-.03775
G1 X96.53 Y103.474 E-.03775
G1 X96.464 Y103.455 E-.03775
G1 X96.399 Y103.437 E-.03775
G1 X96.333 Y103.418 E-.03775
G1 X96.268 Y103.399 E-.03775
G1 X96.321 Y103.379 E-.03187
G1 X96.374 Y103.343 E-.0353
G1 X96.416 Y103.312 E-.02899
;WIPE_END
G1 E-.048 F4200
G1 Z.4 F720
G1 X83 Y102.662 F9000
G1 Z.2 F720
G1 E3.2 F2400
M204 P800
;WIDTH:0.645264
G1 F1200
G1 X83.023 Y102.721 E.00316
;WIDTH:0.600821
G1 X83.059 Y102.773 E.00291
;WIDTH:0.554639
G1 X83.095 Y102.824 E.00267
;WIDTH:0.508456
G1 X83.131 Y102.875 E.00243
;WIDTH:0.462274
G1 X83.167 Y102.927 E.00219
;WIDTH:0.416091
G1 X83.203 Y102.978 E.00195
;WIDTH:0.413588
G1 X83.232 Y103.054 E.00251
;WIDTH:0.457268
G1 X83.261 Y103.13 E.00281
;WIDTH:0.501574
G1 X83.365 Y103.196 E.0047
;WIDTH:0.545879
G1 X83.47 Y103.262 E.00516
;WIDTH:0.590185
G1 X83.574 Y103.328 E.00561
;WIDTH:0.63449
G1 X83.678 Y103.394 E.00607
G1 X83.485 Y103.416 E.00956
;WIDTH:0.590185
G1 X83.292 Y103.438 E.00884
;WIDTH:0.545879
G1 X83.099 Y103.46 E.00812
;WIDTH:0.501574
G1 X82.906 Y103.482 E.00741
;WIDTH:0.457268
G1 X82.897 Y103.269 E.00736
;WIDTH:0.413588
G1 X82.888 Y103.056 E.00658
;WIDTH:0.415801
G1 X82.907 Y102.99 E.00211
;WIDTH:0.461694
G1 X82.925 Y102.925 E.00237
;WIDTH:0.507586
G1 X82.944 Y102.859 E.00263
;WIDTH:0.553479
G1 X82.963 Y102.793 E.00289
;WIDTH:0.599372
G1 X82.982 Y102.728 E.00315
;WIDTH:0.645264
G1 X82.984 Y102.72 E.00041
M204 P1000
G1 E-2.24 F4200
;WIPE_START
G1 F7200
G1 X83.023 Y102.721 E-.02148
G1 X83.059 Y102.773 E-.03476
G1 X83.095 Y102.824 E-.03476
G1 X83.131 Y102.875 E-.03476
G1 X83.167 Y102.927 E-.03476
G1 X83.203 Y102.978 E-.03476
G1 X83.232 Y103.054 E-.04516
G1 X83.261 Y103.13 E-.04516
G1 X83.365 Y103.196 E-.06835
G1 X83.47 Y103.262 E-.06835
G1 X83.574 Y103.328 E-.06835
G1 X83.678 Y103.394 E-.06835
G1 X83.485 Y103.416 E-.10766
G1 X83.292 Y103.438 E-.10766
G1 X83.099 Y103.46 E-.10766
G1 X83.045 Y103.466 E-.02999
;WIPE_END
G1 E-.048 F4200
G1 Z.4 F720
G1 X83.59 Y77.112 F9000
G1 Z.2 F720
M73 P7 R6
G1 E3.2 F2400
M204 P800
;TYPE:External perimeter
;WIDTH:0.419999
G1 F1200
G1 X83.744 Y77.09 E.00486
G1 X96.321 Y77.09 E.39436
G1 X96.455 Y77.145 E.00452
G1 X96.51 Y77.279 E.00453
G1 X96.51 Y102.722 E.79775
G1 X96.453 Y102.856 E.00458
G1 X96.321 Y102.91 E.00447
G1 X83.678 Y102.91 E.39641
G1 X83.513 Y102.811 E.00605
G1 X83.49 Y102.662 E.00471
G1 X83.49 Y77.278 E.79589
G1 X83.56 Y77.163 E.00422
M204 P1000
G1 X83.576 Y76.958 F9000
G1 E-2.24 F4200
;WIPE_START
G1 F7200
G1 X83.744 Y77.09 E-.10993
G1 X85.191 Y77.09 E-.80207
;WIPE_END
G1 E-.048 F4200
M73 P8 R6
G1 Z.4 F720
G1 X82.51 Y103.878 F9000
G1 Z.2 F720
G1 E3.2 F2400
M204 P800
G1 F1200
G1 X82.522 Y76.11 E.87064
G1 X97.49 Y76.11 E.4693
G1 X97.478 Y103.89 E.87102
G1 X82.57 Y103.878 E.46742
M204 P1000
G1 X82.576 Y103.483 F9000
M73 P9 R6
G1 X83.678 Y103.394
M204 P800
;TYPE:Perimeter
;WIDTH:0.63449
G1 F1200
G1 X83.679 Y103.394 E.00003
;WIDTH:0.644774
G1 X96.268 Y103.399 E.63001
M204 P1000
G1 X96.989 Y102.839 F9000
M204 P800
;WIDTH:0.644186
G1 F1200
G1 X96.994 Y102.721 E.00587
;WIDTH:0.64529
G1 X97 Y77.279 E1.27437
M204 P1000
G1 X96.321 Y76.6 F9000
M204 P800
;WIDTH:0.645854
G1 F1200
G1 X83.744 Y76.6 E.63057
M204 P1000
G1 X83.006 Y77.278 F9000
M204 P800
;WIDTH:0.634
G1 F1200
G1 X83.006 Y77.279 E.00001
;WIDTH:0.645264
G1 X83 Y102.662 E1.27135
M204 P1000
; stop printing object sensor_frame.stl id:0 copy 0
M106 S84.15
;LAYER_CHANGE
;Z:0.3
;HEIGHT:0.1
;BEFORE_LAYER_CHANGE
G92 E0.0
;0.3


G1 E-2.24 F4200
;WIPE_START
M73 P10 R6
G1 F7200
G1 X83.001 Y101.017 E-.912
;WIPE_END
G1 E-.048 F4200
G1 Z.4 F720
;AFTER_LAYER_CHANGE
;0.3
M104 S210 ; set temperature
G1 X79.162 Y101.017 F9000
G1 Z.3 F720
G1 E3.2 F2400
;TYPE:Skirt/Brim
;WIDTH:0.42
G1 X79.16 Y75.945 E.41543
G1 X79.241 Y75.21 E.01225
G1 X79.503 Y74.484 E.01279
G1 X79.956 Y73.817 E.01336
G1 X80.545 Y73.301 E.01298
G1 X81.252 Y72.946 E.01311
G1 X82.041 Y72.773 E.01338
G1 X97.74 Y72.761 E.26012
G1 X98.366 Y72.836 E.01045
G1 X98.887 Y72.999 E.00904
G1 X99.783 Y73.556 E.01749
G1 X100.184 Y73.986 E.00974
G1 X100.497 Y74.484 E.00974
G1 X100.716 Y75.043 E.00994
G1 X100.827 Y75.641 E.01009
G1 X100.84 Y104.055 E.47081
G1 X100.759 Y104.79 E.01225
G1 X100.497 Y105.516 E.01279
G1 X100.044 Y106.183 E.01336
G1 X99.455 Y106.699 E.01298
G1 X98.748 Y107.054 E.01311
G1 X97.959 Y107.227 E.01338
G1 X82.26 Y107.239 E.26012
G1 X81.61 Y107.159 E.01085
G1 X80.884 Y106.897 E.01279
G1 X80.234 Y106.459 E.01298
G1 X79.701 Y105.855 E.01336
G1 X79.291 Y104.981 E.01599
G1 X79.162 Y104.186 E.01334
G1 X79.162 Y101.077 E.05152
G1 X79.539 Y101.077 F9000
G1 F2400
G1 X79.537 Y75.945 E.41643
G1 X79.609 Y75.292 E.01088
G1 X79.839 Y74.655 E.01122
G1 X80.239 Y74.066 E.01179
G1 X80.757 Y73.613 E.01141
G1 X81.38 Y73.3 E.01155
G1 X82.076 Y73.149 E.01181
G1 X97.728 Y73.138 E.25934
G1 X98.743 Y73.347 E.01717
M73 P11 R6
G1 X99.534 Y73.839 E.01543
G1 X100.161 Y74.655 E.01706
G1 X100.353 Y75.148 E.00877
G1 X100.451 Y75.676 E.00891
G1 X100.463 Y104.055 E.47022
G1 X100.391 Y104.708 E.01088
G1 X100.161 Y105.345 E.01122
G1 X99.761 Y105.934 E.01179
G1 X99.243 Y106.387 E.01141
G1 X98.62 Y106.7 E.01155
G1 X97.924 Y106.851 E.01181
G1 X82.272 Y106.862 E.25934
G1 X81.692 Y106.791 E.00967
G1 X81.055 Y106.561 E.01122
G1 X80.484 Y106.176 E.01141
G1 X80.013 Y105.643 E.01179
G1 X79.653 Y104.876 E.01404
G1 X79.539 Y104.175 E.01177
G1 X79.539 Y101.137 E.05033
; printing object sensor_frame.stl id:0 copy 0
G1 E-2.24 F4200
;WIPE_START
G1 F7200
G1 X79.539 Y99.491 E-.912
;WIPE_END
G1 E-.048 F4200
G1 Z.5 F720
G1 X83.419 Y77.066 F9000
G1 Z.3 F720
G1 E3.2 F2400
M204 P600
;TYPE:Perimeter
;WIDTH:0.499343
G1 X83.435 Y77.035 E.00069
;WIDTH:0.485308
G1 X83.546 Y76.958 E.00261
;WIDTH:0.520616
G1 X83.658 Y76.881 E.00281
;WIDTH:0.555924
G1 X83.769 Y76.804 E.00301
G1 X83.889 Y76.797 E.00268
;WIDTH:0.548681
G1 X96.111 Y76.797 E.26789
G1 X96.338 Y76.916 E.00562
;WIDTH:0.499319
G1 X96.565 Y77.035 E.0051
G1 X96.684 Y77.262 E.00509
;WIDTH:0.548686
G1 X96.803 Y77.489 E.00562
G1 X96.803 Y102.511 E.54846
;WIDTH:0.555927
G1 X96.796 Y102.631 E.00268
G1 X96.719 Y102.742 E.00301
;WIDTH:0.520618
G1 X96.642 Y102.854 E.00281
;WIDTH:0.485309
G1 X96.565 Y102.965 E.00261
G1 X96.454 Y103.042 E.00261
;WIDTH:0.520619
G1 X96.342 Y103.119 E.00281
;WIDTH:0.555929
G1 X96.231 Y103.196 E.00301
G1 X96.111 Y103.203 E.00268
;WIDTH:0.548687
G1 X83.889 Y103.203 E.26789
G1 X83.662 Y103.084 E.00562
;WIDTH:0.499343
G1 X83.435 Y102.965 E.0051
;WIDTH:0.485309
G1 X83.358 Y102.854 E.00261
;WIDTH:0.520619
G1 X83.281 Y102.742 E.00281
;WIDTH:0.555929
G1 X83.204 Y102.631 E.00301
G1 X83.197 Y102.511 E.00268
;WIDTH:0.548687
G1 X83.197 Y77.489 E.54846
G1 X83.316 Y77.262 E.00562
;WIDTH:0.499343
G1 X83.391 Y77.119 E.00321
M204 P1000
G1 X83.738 Y77.338 F9000
M204 P600
;TYPE:External perimeter
;WIDTH:0.449999
M73 P12 R6
G1 F1800
G1 X83.889 Y77.275 E.00292
G1 X96.111 Y77.275 E.21774
G1 X96.262 Y77.338 E.00292
G1 X96.325 Y77.489 E.00292
G1 X96.325 Y102.511 E.4458
G1 X96.262 Y102.662 E.00292
G1 X96.111 Y102.725 E.00292
G1 X83.889 Y102.725 E.21774
G1 X83.738 Y102.662 E.00292
G1 X83.675 Y102.511 E.00292
G1 X83.675 Y77.489 E.4458
G1 X83.715 Y77.393 E.00185
M204 P1000
G1 X83.695 Y77.179 F9000
G1 E-2.24 F4200
;WIPE_START
G1 F7200
G1 X83.889 Y77.275 E-.11678
G1 X85.324 Y77.275 E-.79522
;WIPE_END
G1 E-.048 F4200
G1 Z.5 F720
G1 X82.621 Y103.779 F9000
G1 Z.3 F720
G1 E3.2 F2400
M204 P600
;TYPE:Perimeter
G1 X82.621 Y103.303 E.0085
;WIDTH:0.499343
G1 X82.645 Y102.907 E.00788
;WIDTH:0.548687
G1 X82.67 Y102.511 E.00869
G1 X82.67 Y77.489 E.54846
G1 X82.645 Y76.855 E.01392
;WIDTH:0.499343
G1 X82.621 Y76.221 E.01261
;WIDTH:0.449999
G1 X83.097 Y76.221 E.0085
;WIDTH:0.49934
G1 X83.493 Y76.245 E.00788
;WIDTH:0.548681
G1 X83.889 Y76.27 E.00869
G1 X96.111 Y76.27 E.26789
G1 X96.745 Y76.245 E.01392
;WIDTH:0.499318
G1 X97.379 Y76.221 E.01261
;WIDTH:0.449999
G1 X97.379 Y76.698 E.0085
;WIDTH:0.499343
M73 P13 R6
G1 X97.355 Y77.093 E.00788
;WIDTH:0.548686
G1 X97.33 Y77.489 E.00869
G1 X97.33 Y102.511 E.54846
;WIDTH:0.555927
G1 X97.344 Y103.045 E.01187
;WIDTH:0.520618
G1 X97.362 Y103.412 E.00763
;WIDTH:0.485309
G1 X97.379 Y103.779 E.00709
;WIDTH:0.449999
G1 X96.903 Y103.779 E.0085
;WIDTH:0.499343
G1 X96.507 Y103.755 E.00788
;WIDTH:0.548687
G1 X96.111 Y103.73 E.00869
G1 X83.889 Y103.73 E.26789
G1 X83.255 Y103.755 E.01392
;WIDTH:0.499343
G1 X82.681 Y103.777 E.01142
M204 P1000
G1 X82.192 Y103.973 F9000
M204 P600
;TYPE:External perimeter
;WIDTH:0.449999
G1 F1800
G1 X82.192 Y76.027 E.49791
G1 X82.258 Y75.858 E.00323
