; generated by PrusaSlicer 2.5.2+linux-x64-GTK3 on 2023-04-13 at 19:08:23 UTC


;
;

;
;
; 

; external perimeters extrusion width = 0.45mm
; perimeters extrusion width = 0.45mm
; infill extrusion width = 0.45mm
; solid infill extrusion width = 0.45mm
; top infill extrusion width = 0.40mm
; first layer extrusion width = 0.42mm

M73 P0 R4
M201 X2500 Y2500 Z400 E5000 ; sets maximum accelerations, mm/sec^2
M203 X180 Y180 Z12 E80 ; sets maximum feedrates, mm / sec
M204 P1250 R1250 T2500 ; sets acceleration (P, T) and retract acceleration (R), mm/sec^2
M205 X8.00 Y8.00 Z2.00 E10.00 ; sets the jerk limits, mm/sec
M205 S0 T0 ; sets the minimum extruding and travel feed rate, mm/sec
M107
;TYPE:Custom
M862.3 P "MINI" ; printer model check
G90 ; use absolute coordinates
M83 ; extruder relative mode
M104 S170 ; set extruder temp for bed leveling
M140 S60 ; set bed temp
M109 R170 ; wait for bed leveling temp
M190 S60 ; wait for bed temp
M204 T1250 ; set travel acceleration
G28 ; home all without mesh bed level
G29 ; mesh bed leveling 
M204 T2500 ; restore travel acceleration
M104 S215 ; set extruder temp
G92 E0
G1 Y-2 X179 F2400
G1 Z3 F720
M109 S215 ; wait for extruder temp

; intro line
M73 P1 R4
G1 X170 F1000
G1 Z0.2 F720
G1 X110 E8 F900
G1 X40 E10 F700
G92 E0

M221 S95 ; set flow
G21 ; set units to millimeters
G90 ; use absolute coordinates
M83 ; use relative distances for extrusion
M900 K0.2 ; Filament gcode LA 1.5
; ; Filament gcode LA 1.0
M107
;LAYER_CHANGE
;Z:0.2
;HEIGHT:0.2
;BEFORE_LAYER_CHANGE
G92 E0.0
;0.2


M73 P3 R4
G1 E-3.2 F4200
M73 P5 R4
G1 Z.2 F720
;AFTER_LAYER_CHANGE
;0.2
G1 Z.4
G1 X79.766 Y74.31 F9000
G1 Z.2 F720
G1 E3.2 F2400
M204 P800
;TYPE:Skirt/Brim
;WIDTH:0.42
G1 F1200
G1 X80.832 Y73.297 E.04612
G1 X82.127 Y72.973 E.04186
G1 X97.873 Y72.973 E.49368
G1 X99.29 Y73.366 E.04612
M73 P6 R4
G1 X100.303 Y74.432 E.04612
G1 X100.627 Y75.727 E.04186
G1 X100.627 Y104.273 E.89502
G1 X100.234 Y105.69 E.04612
G1 X99.168 Y106.703 E.04612
G1 X97.873 Y107.027 E.04186
G1 X82.127 Y107.027 E.49368
G1 X80.71 Y106.634 E.04612
M73 P7 R4
G1 X79.697 Y105.568 E.04612
G1 X79.373 Y104.273 E.04186
G1 X79.373 Y75.727 E.89502
G1 X79.75 Y74.368 E.04424
M204 P1000
G1 X80.124 Y74.48 F9000
M204 P800
G1 F1200
G1 X80.142 Y74.42 E.00195
G1 X81.188 Y73.544 E.04278
G1 X82.127 Y73.35 E.03008
G1 X97.873 Y73.35 E.49368
G1 X99.18 Y73.742 E.04278
M73 P8 R4
G1 X100.056 Y74.788 E.04278
G1 X100.25 Y75.727 E.03008
G1 X100.25 Y104.273 E.89502
G1 X99.858 Y105.58 E.04278
G1 X98.812 Y106.456 E.04278
G1 X97.873 Y106.65 E.03008
G1 X82.127 Y106.65 E.49368
G1 X80.82 Y106.258 E.04278
G1 X79.944 Y105.212 E.04278
G1 X79.75 Y104.273 E.03008
M73 P9 R4
G1 X79.75 Y75.727 E.89502
G1 X80.107 Y74.537 E.03895
M204 P1000
; printing object sensor_frame.stl id:0 copy 0
G1 E-2.24 F4200
;WIPE_START
G1 F7200
G1 X80.142 Y74.42 E-.06768
G1 X81.188 Y73.544 E-.75612
G1 X81.343 Y73.512 E-.0882
;WIPE_END
G1 E-.048 F4200
G1 Z.4 F720
G1 X97.256 Y103.656 F9000
G1 Z.2 F720
G1 E3.2 F2400
M204 P800
;TYPE:External perimeter
;WIDTH:0.468754
G1 F1200
G1 X96.668 Y103.72 E.02094
;WIDTH:0.419336
G1 X83.325 Y103.719 E.41762
;WIDTH:0.468753
G1 X82.744 Y103.656 E.02072
M73 P10 R4
G1 X82.68 Y103.07 E.02087
;WIDTH:0.419301
G1 X82.68 Y76.936 E.81791
G1 X82.681 Y76.924 E.00039
;WIDTH:0.468753
G1 X82.744 Y76.344 E.02065
G1 X83.332 Y76.28 E.02094
;WIDTH:0.419335
G1 X96.675 Y76.281 E.41762
;WIDTH:0.468754
G1 X97.256 Y76.344 E.02072
G1 X97.32 Y76.93 E.02087
;WIDTH:0.419301
G1 X97.319 Y103.076 E.8183
;WIDTH:0.468754
G1 X97.263 Y103.597 E.01853
M204 P1000
M73 P11 R4
G1 E-2.24 F4200
;WIPE_START
G1 F7200
G1 X96.668 Y103.72 E-.33641
G1 X95.63 Y103.72 E-.57559
;WIPE_END
G1 E-.048 F4200
G1 Z.4 F720
G1 X83.094 Y103.306 F9000
G1 Z.2 F720
G1 E3.2 F2400
M204 P800
;WIDTH:0.468753
G1 F1200
G1 X83.057 Y103.064 E.00865
;WIDTH:0.419301
G1 X83.058 Y76.845 E.82056
;WIDTH:0.44254
G1 X83.076 Y76.77 E.00257
;WIDTH:0.468753
G1 X83.094 Y76.694 E.00274
G1 X83.338 Y76.657 E.00872
;WIDTH:0.419336
G1 X96.662 Y76.657 E.41704
;WIDTH:0.468754
G1 X96.906 Y76.694 E.00872
M73 P12 R4
G1 X96.943 Y76.936 E.00865
;WIDTH:0.419301
G1 X96.943 Y103.064 E.81772
;WIDTH:0.468754
G1 X96.906 Y103.306 E.00865
G1 X96.662 Y103.343 E.00872
;WIDTH:0.419336
G1 X83.338 Y103.343 E.41704
;WIDTH:0.468753
G1 X83.154 Y103.315 E.00659
M204 P1000
; stop printing object sensor_frame.stl id:0 copy 0
M106 S84.15
;LAYER_CHANGE
;Z:0.35
;HEIGHT:0.15
;BEFORE_LAYER_CHANGE
G92 E0.0
;0.35


G1 E-2.24 F4200
;WIPE_START
G1 F7200
G1 X83.057 Y103.064 E-.14889
G1 X83.057 Y101.687 E-.76311
;WIPE_END
G1 E-.048 F4200
G1 Z.4 F720
;AFTER_LAYER_CHANGE
;0.35
M104 S210 ; set temperature
G1 X79.373 Y101.687 F9000
G1 Z.35 F720
G1 E3.2 F2400
;TYPE:Skirt/Brim
;WIDTH:0.42
G1 F1640
M73 P13 R4
G1 X79.373 Y75.727 E.62783
G1 X79.766 Y74.31 E.03557
G1 X80.832 Y73.297 E.03557
G1 X82.127 Y72.973 E.03229
G1 X97.873 Y72.973 E.3808
G1 X99.29 Y73.366 E.03557
G1 X100.303 Y74.432 E.03557
G1 X100.627 Y75.727 E.03229
G1 X100.627 Y104.273 E.69036
G1 X100.234 Y105.69 E.03557
M73 P14 R4
G1 X99.168 Y106.703 E.03557
G1 X97.873 Y107.027 E.03229
G1 X82.127 Y107.027 E.3808
G1 X80.71 Y106.634 E.03557
G1 X79.697 Y105.568 E.03557
G1 X79.373 Y104.273 E.03229
G1 X79.373 Y101.747 E.06108
G1 X79.75 Y101.747 F9000
G1 F1640
G1 X79.75 Y75.727 E.62928
G1 X80.142 Y74.42 E.033
G1 X81.188 Y73.544 E.033
G1 X82.127 Y73.35 E.02321
G1 X97.873 Y73.35 E.3808
G1 X99.18 Y73.742 E.033
M73 P14 R3
G1 X100.056 Y74.788 E.033
M73 P15 R3
G1 X100.25 Y75.727 E.02321
G1 X100.25 Y104.273 E.69036
G1 X99.858 Y105.58 E.033
G1 X98.812 Y106.456 E.033
G1 X97.873 Y106.65 E.02321
G1 X82.127 Y106.65 E.3808
G1 X80.82 Y106.258 E.033
G1 X79.944 Y105.212 E.033
G1 X79.75 Y104.273 E.02321
G1 X79.75 Y101.807 E.05963
; printing object sensor_frame.stl id:0 copy 0
G1 E-2.24 F4200
;WIPE_START
G1 F7200
G1 X79.75 Y100.161 E-.912
;WIPE_END
G1 E-.048 F4200
G1 Z.55 F720
G1 X96.735 Y103.278 F9000
G1 Z.35 F720
G1 E3.2 F2400
M204 P800
;TYPE:External perimeter
;WIDTH:0.653382
G1 F1640
G1 X96.616 Y103.302 E.00469
;WIDTH:0.604303
G1 X83.384 Y103.302 E.47211
G1 X83.342 Y103.262 E.00207
;WIDTH:0.565727
M73 P16 R3
G1 X83.3 Y103.222 E.00193
;WIDTH:0.527151
G1 X83.259 Y103.182 E.00179
;WIDTH:0.488575
G1 X83.217 Y103.142 E.00165
G1 X83.187 Y103.11 E.00123
;WIDTH:0.527151
G1 X83.157 Y103.079 E.00134
;WIDTH:0.565727
G1 X83.128 Y103.047 E.00144
;WIDTH:0.604303
G1 X83.098 Y103.016 E.00154
G1 X83.098 Y76.984 E.92879
G1 X83.384 Y76.698 E.01443
G1 X96.616 Y76.698 E.47211
G1 X96.902 Y76.984 E.01443
G1 X96.902 Y103.016 E.92879
;WIDTH:0.653382
G1 X96.878 Y103.135 E.00469
;WIDTH:0.702461
G1 X96.853 Y103.253 E.00506
G1 X96.793 Y103.265 E.00255
M204 P1000
G1 X96.719 Y103.398 F9000
G1 X97.425 Y103.825
M204 P800
G1 F1640
M73 P17 R3
G1 X97.021 Y103.85 E.01694
;WIDTH:0.653382
G1 X96.616 Y103.874 E.0157
;WIDTH:0.604303
G1 X83.384 Y103.874 E.47211
G1 X83.265 Y103.894 E.00428
;WIDTH:0.565727
G1 X83.147 Y103.913 E.00399
;WIDTH:0.527151
G1 X83.028 Y103.932 E.00371
;WIDTH:0.488575
G1 X82.91 Y103.951 E.00342
;WIDTH:0.449999
G1 X82.449 Y103.951 E.01202
G1 X82.456 Y103.391 E.0146
;WIDTH:0.488575
G1 X82.473 Y103.297 E.00271
;WIDTH:0.527151
G1 X82.491 Y103.204 E.00294
;WIDTH:0.565727
G1 X82.508 Y103.11 E.00317
;WIDTH:0.604303
G1 X82.526 Y103.016 E.0034
G1 X82.526 Y76.984 E.92879
G1 X82.506 Y76.865 E.00428
;WIDTH:0.565727
G1 X82.487 Y76.747 E.00399
;WIDTH:0.527151
G1 X82.468 Y76.628 E.00371
;WIDTH:0.488575
G1 X82.449 Y76.51 E.00342
;WIDTH:0.449999
G1 X82.449 Y76.049 E.01202
G1 X82.91 Y76.049 E.01202
;WIDTH:0.488575
G1 X83.028 Y76.068 E.00342
;WIDTH:0.527151
G1 X83.147 Y76.087 E.00371
;WIDTH:0.565727
G1 X83.265 Y76.106 E.00399
;WIDTH:0.604303
G1 X83.384 Y76.126 E.00428
G1 X96.616 Y76.126 E.47211
G1 X96.735 Y76.106 E.00428
;WIDTH:0.565727
G1 X96.853 Y76.087 E.00399
;WIDTH:0.527151
G1 X96.972 Y76.068 E.00371
;WIDTH:0.488575
G1 X97.09 Y76.049 E.00342
;WIDTH:0.449999
G1 X97.551 Y76.049 E.01202
G1 X97.551 Y76.51 E.01202
;WIDTH:0.488575
G1 X97.532 Y76.628 E.00342
;WIDTH:0.527151
G1 X97.513 Y76.747 E.00371
;WIDTH:0.565727
G1 X97.494 Y76.865 E.00399
;WIDTH:0.604302
G1 X97.474 Y76.984 E.00428
G1 X97.474 Y103.016 E.92879
;WIDTH:0.608636
G1 X97.472 Y103.116 E.00358
;WIDTH:0.655549
M73 P18 R3
G1 X97.449 Y103.47 E.01382
;WIDTH:0.702461
G1 X97.429 Y103.765 E.01235
M204 P1000
G1 E-2.24 F4200
;WIPE_START
G1 F7200
G1 X97.021 Y103.85 E-.23116
G1 X96.616 Y103.874 E-.2246
G1 X95.793 Y103.874 E-.45624
;WIPE_END
G1 E-.048 F4200
G1 Z.55 F720
G1 X97.122 Y76.455 F9000
G1 Z.35 F720
G1 E3.2 F2400
M204 P800
;TYPE:Perimeter
;WIDTH:0.537114
G1 F1640
G1 X97.058 Y76.455 E.00199
G1 X97.027 Y76.51 E.00199
G1 X97.058 Y76.565 E.00199
G1 X97.122 Y76.565 E.00199
G1 X97.153 Y76.51 E.00199
M204 P1000
; stop printing object sensor_frame.stl id:0 copy 0
M106 S170.85
;LAYER_CHANGE
;Z:0.5
;HEIGHT:0.15
;BEFORE_LAYER_CHANGE
G92 E0.0
;0.5


G1 E-2.24 F4200
;WIPE_START
G1 F7200
G1 X97.122 Y76.565 E-.03498
G1 X97.058 Y76.565 E-.03498
G1 X97.027 Y76.51 E-.03498
G1 X97.058 Y76.455 E-.03498
G1 X97.122 Y76.455 E-.03498
;WIPE_END
G1 E-.78512 F4200
G1 Z.55 F720
;AFTER_LAYER_CHANGE
;0.5
G1 X97.122 Y72.973 F9000
G1 Z.5 F720
G1 E3.2 F2400
;TYPE:Skirt/Brim
;WIDTH:0.42
G1 F2222
G1 X97.873 Y72.973 E.01816
G1 X99.29 Y73.366 E.03557
G1 X100.303 Y74.432 E.03557
G1 X100.627 Y75.727 E.03229
G1 X100.627 Y104.273 E.69036
G1 X100.234 Y105.69 E.03557
G1 X99.168 Y106.703 E.03557
G1 X97.873 Y107.027 E.03229
G1 X82.127 Y107.027 E.3808
G1 X80.71 Y106.634 E.03557
M73 P19 R3
G1 X79.697 Y105.568 E.03557
G1 X79.373 Y104.273 E.03229
G1 X79.373 Y75.727 E.69036
G1 X79.766 Y74.31 E.03557
G1 X80.832 Y73.297 E.03557
G1 X82.127 Y72.973 E.03229
G1 X97.062 Y72.973 E.36118
G1 X97.062 Y73.35 F9000
G1 F2222
G1 X97.873 Y73.35 E.01961
G1 X99.18 Y73.742 E.033
G1 X100.056 Y74.788 E.033
G1 X100.25 Y75.727 E.02321
G1 X100.25 Y104.273 E.69036
G1 X99.858 Y105.58 E.033
G1 X98.812 Y106.456 E.033
G1 X97.873 Y106.65 E.02321
G1 X82.127 Y106.65 E.3808
G1 X80.82 Y106.258 E.033
M73 P20 R3
G1 X79.944 Y105.212 E.033
G1 X79.75 Y104.273 E.02321
G1 X79.75 Y75.727 E.69036
G1 X80.142 Y74.42 E.033
G1 X81.188 Y73.544 E.033
G1 X82.127 Y73.35 E.02321
G1 X97.002 Y73.35 E.35973
; printing object sensor_frame.stl id:0 copy 0
G1 E-2.24 F4200
;WIPE_START
G1 F7200
G1 X97.873 Y73.35 E-.4827
G1 X98.615 Y73.573 E-.4293
;WIPE_END
G1 E-.048 F4200
G1 Z.7 F720
G1 X83.236 Y103.164 F9000
G1 Z.5 F720
G1 E3.2 F2400
M204 P800
;TYPE:External perimeter
;WIDTH:0.449999
G1 F1800
G1 X83.175 Y103.016 E.00417
G1 X83.175 Y76.984 E.67829
G1 X83.236 Y76.836 E.00417
M73 P21 R3
G1 X83.384 Y76.775 E.00417
G1 X96.616 Y76.775 E.34477
G1 X96.764 Y76.836 E.00417
G1 X96.825 Y76.984 E.00417
G1 X96.825 Y103.016 E.67829
G1 X96.764 Y103.164 E.00417
G1 X96.616 Y103.225 E.00417
G1 X83.384 Y103.225 E.34477
G1 X83.292 Y103.187 E.0026
M204 P1000
G1 X83.082 Y103.205 F9000
G1 E-2.24 F4200
;WIPE_START
G1 F7200
G1 X83.175 Y103.016 E-.11455
G1 X83.175 Y101.577 E-.79745
;WIPE_END
G1 E-.048 F4200
G1 Z.7 F720
G1 X97.648 Y104.048 F9000
G1 Z.5 F720
G1 E3.2 F2400
M204 P800
G1 F1800
G1 X82.352 Y104.048 E.39853
G1 X82.352 Y75.952 E.73204
M73 P22 R3
G1 X97.648 Y75.952 E.39853
G1 X97.648 Y103.988 E.73048
M204 P1000
G1 X97.273 Y103.908 F9000
G1 E-2.24 F4200
;WIPE_START
G1 F7200
G1 X96.002 Y103.994 E-.912
;WIPE_END
G1 E-.048 F4200
M73 P23 R3
G1 Z.7 F720
G1 X82.849 Y103.429 F9000
G1 Z.5 F720
G1 E3.2 F2400
M204 P800
;TYPE:Perimeter
;WIDTH:0.64985
G1 F2222
G1 X82.849 Y103.427 E.00007
;WIDTH:0.607285
G1 X82.828 Y103.324 E.00376
;WIDTH:0.56472
G1 X82.806 Y103.222 E.00349
;WIDTH:0.522155
G1 X82.785 Y103.119 E.00321
;WIDTH:0.479589
G1 X82.764 Y103.016 E.00293
;WIDTH:0.437024
G1 X82.764 Y76.984 E.65722
;WIDTH:0.479589
G1 X82.785 Y76.881 E.00293
;WIDTH:0.522155
G1 X82.806 Y76.778 E.00321
;WIDTH:0.56472
G1 X82.828 Y76.676 E.00349
;WIDTH:0.607285
G1 X82.849 Y76.573 E.00376
;WIDTH:0.64985
G1 X82.87 Y76.47 E.00404
G1 X82.973 Y76.449 E.00404
;WIDTH:0.607285
G1 X83.076 Y76.428 E.00376
;WIDTH:0.56472
G1 X83.178 Y76.406 E.00349
;WIDTH:0.522155
G1 X83.281 Y76.385 E.00321
;WIDTH:0.479589
G1 X83.384 Y76.364 E.00293
;WIDTH:0.437024
G1 X96.616 Y76.364 E.33407
;WIDTH:0.47959
G1 X96.719 Y76.385 E.00293
;WIDTH:0.522155
G1 X96.822 Y76.406 E.00321
;WIDTH:0.564721
G1 X96.924 Y76.428 E.00349
;WIDTH:0.607287
G1 X97.027 Y76.449 E.00376
;WIDTH:0.649852
G1 X97.13 Y76.47 E.00404
G1 X97.151 Y76.573 E.00404
;WIDTH:0.607286
G1 X97.172 Y76.676 E.00376
;WIDTH:0.56472
G1 X97.194 Y76.778 E.00349
;WIDTH:0.522154
G1 X97.215 Y76.881 E.00321
;WIDTH:0.479588
G1 X97.236 Y76.984 E.00293
;WIDTH:0.437022
G1 X97.236 Y103.016 E.65722
;WIDTH:0.479588
G1 X97.215 Y103.119 E.00293
;WIDTH:0.522154
G1 X97.194 Y103.222 E.00321
;WIDTH:0.56472
G1 X97.172 Y103.324 E.00349
;WIDTH:0.607286
G1 X97.151 Y103.427 E.00376
;WIDTH:0.649852
G1 X97.13 Y103.53 E.00404
G1 X97.027 Y103.551 E.00404
;WIDTH:0.607287
G1 X96.924 Y103.572 E.00376
;WIDTH:0.564721
G1 X96.822 Y103.594 E.00349
;WIDTH:0.522155
G1 X96.719 Y103.615 E.00321
;WIDTH:0.47959
G1 X96.616 Y103.636 E.00293
;WIDTH:0.437024
G1 X83.384 Y103.636 E.33407
;WIDTH:0.479589
G1 X83.281 Y103.615 E.00293
;WIDTH:0.522155
G1 X83.178 Y103.594 E.00321
;WIDTH:0.56472
G1 X83.076 Y103.572 E.00349
;WIDTH:0.607285
G1 X82.973 Y103.551 E.00376
;WIDTH:0.64985
G1 X82.87 Y103.53 E.00404
G1 X82.861 Y103.488 E.00166
M204 P1000
; stop printing object sensor_frame.stl id:0 copy 0
M106 S255
;LAYER_CHANGE
;Z:0.65
;HEIGHT:0.15
;BEFORE_LAYER_CHANGE
G92 E0.0
;0.65


G1 E-2.24 F4200
;WIPE_START
G1 F7200
G1 X82.849 Y103.427 E-.0343
G1 X82.828 Y103.324 E-.05816
G1 X82.806 Y103.222 E-.05816
G1 X82.785 Y103.119 E-.05816
G1 X82.764 Y103.016 E-.05816
G1 X82.764 Y101.852 E-.64507
;WIPE_END
G1 E-.048 F4200
G1 Z.7 F720
;AFTER_LAYER_CHANGE
;0.65
; printing object sensor_frame.stl id:0 copy 0
G1 X97.626 Y103.928 F9000
G1 Z.65 F720
M73 P24 R3
G1 E3.2 F2400
M204 P800
;TYPE:External perimeter
;WIDTH:0.719526
G1 F900
G1 X97.609 Y104.009 E.00355
G1 X97.528 Y104.026 E.00355
;WIDTH:0.685974
G1 X97.447 Y104.043 E.00337
;WIDTH:0.652421
G1 X97.366 Y104.059 E.0032
;WIDTH:0.618868
G1 X82.634 Y104.059 E.539
;WIDTH:0.652421
G1 X82.553 Y104.043 E.0032
;WIDTH:0.685974
G1 X82.472 Y104.026 E.00337
;WIDTH:0.719526
G1 X82.391 Y104.009 E.00355
G1 X82.374 Y103.928 E.00355
;WIDTH:0.685974
G1 X82.357 Y103.847 E.00337
;WIDTH:0.652421
G1 X82.341 Y103.766 E.0032
;WIDTH:0.618868
G1 X82.341 Y76.234 E1.00732
;WIDTH:0.652421
G1 X82.357 Y76.153 E.0032
;WIDTH:0.685974
M73 P25 R3
G1 X82.374 Y76.072 E.00337
;WIDTH:0.719526
G1 X82.391 Y75.991 E.00355
G1 X82.472 Y75.974 E.00355
;WIDTH:0.685974
G1 X82.553 Y75.957 E.00337
;WIDTH:0.652421
G1 X82.634 Y75.941 E.0032
;WIDTH:0.618868
G1 X97.366 Y75.941 E.539
;WIDTH:0.652421
G1 X97.447 Y75.957 E.0032
;WIDTH:0.685974
G1 X97.528 Y75.974 E.00337
;WIDTH:0.719526
G1 X97.609 Y75.991 E.00355
G1 X97.626 Y76.072 E.00355
;WIDTH:0.685973
G1 X97.643 Y76.153 E.00337
;WIDTH:0.65242
G1 X97.659 Y76.234 E.0032
;WIDTH:0.618866
G1 X97.659 Y103.766 E1.00731
;WIDTH:0.65242
G1 X97.643 Y103.847 E.0032
;WIDTH:0.685973
M73 P26 R3
G1 X97.638 Y103.869 E.00093
M204 P1000
; stop printing object sensor_frame.stl id:0 copy 0
;LAYER_CHANGE
;Z:0.8
;HEIGHT:0.15
;BEFORE_LAYER_CHANGE
G92 E0.0
;0.8


G1 E-2.24 F4200
;WIPE_START
G1 F7200
G1 X97.609 Y104.009 E-.07909
G1 X97.528 Y104.026 E-.04584
G1 X97.447 Y104.043 E-.04584
G1 X97.366 Y104.059 E-.04584
G1 X96.111 Y104.059 E-.69538
;WIPE_END
G1 E-.048 F4200
G1 Z.85 F720
;AFTER_LAYER_CHANGE
;0.8
; printing object sensor_frame.stl id:0 copy 0
G1 X97.849 Y75.751 F9000
G1 Z.8 F720
G1 E3.2 F2400
M204 P800
;WIDTH:0.432226
G1 F900
G1 X97.864 Y75.992 E.00603
;WIDTH:0.402934
G1 X97.878 Y76.234 E.00559
;WIDTH:0.373642
G1 X97.878 Y103.766 E.58627
;WIDTH:0.402934
G1 X97.864 Y104.008 E.00559
;WIDTH:0.432226
G1 X97.849 Y104.249 E.00603
M73 P27 R3
G1 X97.608 Y104.264 E.00603
;WIDTH:0.402935
G1 X97.366 Y104.278 E.00559
;WIDTH:0.373643
G1 X82.634 Y104.278 E.31371
;WIDTH:0.402935
G1 X82.392 Y104.264 E.00559
;WIDTH:0.432227
G1 X82.151 Y104.249 E.00603
G1 X82.136 Y104.008 E.00603
;WIDTH:0.402935
G1 X82.122 Y103.766 E.00559
;WIDTH:0.373643
G1 X82.122 Y76.234 E.58627
;WIDTH:0.402935
G1 X82.136 Y75.992 E.00559
;WIDTH:0.432227
